X:275
T:May Day in the Morning
A:Wyresdale, Lancashire
B:E and J Winder, 1835-41
L:1/8
M:C|
O:England
Z:Richard Robinson 
%%TUNEURL: http://www.leeds.ac.uk/music/Info/RRTuneBk/gettune/00000eb0.html
%%ID:00000eb0
K:D
DFED EGFd | DFED CEA,E | DFED EFGE | Dd c(B/c/) d2d2 ::
(d/e/f/g/) af afed | (B/c/d/e/) ec ecBA | \
(d/e/f/g/) af afed | ce A(B/c/) d2d2 |]
